!!!!SEGMENT: pl-wumfc--n53446--001-020_moniuszko-stanislaw--hrabina-no-16-recitativo-i-piosnka-broni.krn
!!!cenid: 18xx:4107
!!!COM: Moniuszko, Stanisław
!!!COM-rismID: pe30008351
!!!CDT: 1819/05/05-1872/06/04
!!!CNT: Polish
!!!OPR: Hrabina
!!!OTL: No. 16. Recitativo i Piosnka Broni
!!!OMV: 020
!!!PDT:
!!!AGN:
!!!SMS-siglum: PL-Wumfc
!!!SMS-shelfmark: N53446
!!!SMS-shelfwork: 001-020 M
!!!SMS-variant:
!!!SMS-altvar:
!!!NIFC-rismSourceID: 1001165649
!!!NIFC-rismChildID: 1001165649
!!!NIFC-islandoraID: pl-wumfc:6884
!!!URL-pdf-islandora: https://repozytorium.nifc.pl/islandora/object/pl-wumfc%3A6884/datastream/PDF/view
!!!URL-scan: https://polish.musicsources.pl/pl/lokalizacje/galeria/druki-muzyczne/12579 @EN{Scan on Polish Music Sources Website} @PL{Skany w portalu Dziedzictwo Muzyki Polskiej w otwartym dostępie}
!!!IIIF:
!!!ONB-nifc:
!!!AIN: 1 piano
!!!key: g
**kern	**kern	**text	**dynam
*part1	*part1	*part1	*part1
*staff2	*staff1	*staff1	*
*I"[Piano.]	*I"[Piano.]	*	*
*>[A,B,B1,B,B2,C]	*>[A,B,B1,B,B2,C]	*	*
*>A	*>A	*	*
*Ipiano	*Ipiano	*	*
*ICklav	*ICklav	*	*
*clefF4	*clefG2	*	*
*k[b-e-]	*k[b-e-]	*	*
*g:	*g:	*	*
*M3/4	*M3/4	*	*
=1	=1	=1	=1
!!LO:TX:B:a:t=Andantino.
!	!LO:TX:t=P:problem:cały tekst zapisany ponad pięciolinią	!	!
2.r	4r	.	.
.	8r	.	.
.	8gg^\L	.	p
.	8ff#X\	.	.
.	8ffn\J	.	.
=2	=2	=2	=2
8r>	4.ee-\	.	.
8bn>L 8g>\	.	.	.
8cc>J 8a-X>\	.	.	.
8rc>	8ee-^/L	.	.
4rc>	8dd/	.	.
.	8cc#X/J	.	.
=3	=3	=3	=3
8r>	4.dd/	.	.
8an>L 8f#X>\	.	.	.
8b->J 8g>\	.	.	.
8d\L	8dd/L	.	.
8c#X\	8cc#X/	.	.
8cn\J	8ccn/J	.	.
=4	=4	=4	=4
8.B-\L	8.b-^>/L	.	.
16A\Jk	16a/Jk	.	.
8G\	8g/	.	.
8B-\L	8gL 8d/	.	.
8c 8A\	8f#X 8d/	.	.
8B-J 8G\	8gJ 8d/	.	.
=5	=5	=5	=5
2.G 2.En 2.GG^\	2.a 2.c#X 2.A^>/	.	.
=6||	=6||	=6||	=6||
*M4/4	*M4/4	*	*
*met(c)	*met(c)	*	*
2D 2FF#X/	2d 2A/	.	.
2r	2r	.	.
!!LO:LB:g=original
=7	=7	=7	=7
!	!LO:TX:i:b:t=Recitativo	!	!
1r	8a/L	Gwoź-	p
.	8d/J	-dzik,	.
.	4r	.	.
.	4dd\	u-	.
.	8a/	-rok,	.
.	8r	.	.
=8	=8	=8	=8
2r	8.a/L	po-	.
.	16b-/K	-wiew	.
.	8.a/	krót-	.
.	16g/Jk	-ki	.
4r	8g/L	szczęś-	.
.	8f#X/J	-cia,	.
8r	8r	.	.
8D\	8f# 8c 8A/	.	.
=9	=9	=9	=9
*	*^	*	*
1G 1E- 1C	8.r	1g 1c	.	pp
.	16g/	.	a	.
.	4cc/	.	tu	.
.	4r	.	.	.
.	8cc/L	.	kwiat	.
.	8dd/J	.	roz-	.
*	*v	*v	*	*
=10	=10	=10	=10
4c 4G 4C\	4ee- 4e-/	-pa-	.
4r	8cc/L	-czy	.
.	16g/L	nieś-	.
.	16f/JJ	-mier-	.
2r	4f/	-tel-	.
.	4e-/	-nik	.
=11	=11	=11	=11
!	!LO:TX:i:b:t=a tempo	!	!
2e- 2c\	8r	.	.
.	16a-X/LL	nie-	.
.	16b-/JJ	-za-	.
.	8.cc/L	-bud-	.
.	16a-/Jk	-ka	.
2f-X 2d-X\	4a-/	pa-	.
.	4g/	-mięć	.
!!LO:LB:g=original
=12	=12	=12	=12
2dn 2B- 2Dn\	8r	.	.
.	16g/LL	ró-	.
.	16an/JJ	-ża	.
.	8.b-/L	mi-	.
.	16g/Jk	-łość	.
4.d 4.A 4.D\	8g/L	zna-	.
.	8f#X/J	-czy,	.
.	8r	.	.
8D\	8f# 8d 8A/	.	.
=13	=13	=13	=13
4C#X/	4a 4en 4A/	.	.
4r	8.a^>/L	.	.
.	16e/Jk	.	.
2r	16c#X/LL	.	.
.	16e/	.	.
.	16a/	.	.
.	16cc#X/JJ	.	.
.	8.bn/L	.	.
.	16a/Jk	.	.
=14	=14	=14	=14
1r	4een\	.	.
!	!LO:TX:i:b:t=Recitativo	!	!
.	8a/L	Dar-	.
.	8a/J	-mo	.
.	8a/L	wian-	.
.	8b-X/	-ki	.
.	8a/	so-	.
.	8g/J	-bie	.
=15	=15	=15	=15
4r	8g/L	plo-	.
.	8f#X/J	-tę,	.
4A\	4cc 4f# 4d/	.	.
2r	8r	.	.
.	16cc\LL	dar-	.
.	16cc\JJ	-mo	.
.	16.dd\LL	słon-	.
.	32cc\K	-ko	.
.	16b-\	się	.
.	16a\JJ	u-	.
!!LO:LB:g=original
=16	=16	=16	=16
!	!LO:TX:i:b:t=a tempo	!	!
8r	8cc\L	-śmie-	p
4G\	8b- 8g 8d\	-cha	.
.	8dd 8b- 8g\	.	.
8G\	8ggJ 8dd 8b-\	.	.
4G\	4bb- 4gg 4dd 4b-\	.	.
4r	8.b-\L	Dla	.
.	16b-\Jk	sie-	.
=17	=17	=17	=17
4r>	2b-/	-ro-	.
4f#X> 4d>\	.	.	.
[2g> [2e->\	4b-/	-ty	.
.	8.bn/L	na	.
.	16cc/Jk	tęs-	.
=18	=18	=18	=18
*^	*	*	*
*	*^	*	*	*
4g>] 4e->\]	2.ryy	2.ryy	2cc/	-kno-	.
4g#X> 4en>\	.	.	.	.	.
4a> 4fn>\	.	.	4cc/	-tę	.
4c/	4F#X\	4a>\	8.ee-X;/L	gdzież	.
.	.	.	16dd/Jk	na-	.
*	*v	*v	*	*	*
=19	=19	=19	=19	=19
4B-/	4G\	2dd 2g/	-dzie-	.
4Bn/	4Fn\	.	.	.
4c/	4En\	4g/	-ja?	.
!	!	!LO:TUP:b:problem:klamra łukowa	!	!
4c#X/	4E-X\	12g/L	gdzie	.
.	.	12f#X/	.	.
.	.	12g/J	po-	.
*v	*v	*	*	*
=20	=20	=20	=20
2.d 2.D\	2b- 2g/	-cie-	.
.	4a 4f#X/	-cha?	.
4r;	4r;	.	.
!!LO:LB:g=original
=21||	=21||	=21||	=21||
*M3/4	*M3/4	*	*
8B-L 8G\	8gL 8d/	.	.
16B-L 16G\	16gL 16d/	.	.
16B-JJ 16G\	16gJJ 16d/	.	.
8B-L 8G\	8gL 8d/	.	.
8B- 8G\	8gJ 8d/	.	.
8B- 8G\	8gL 8d/	.	.
8B-J 8G\	8gJ 8d/	.	.
=22!|:	=22!|:	=22!|:	=22!|:
*>B	*>B	*	*
8B-L 8G\	8gL 8d/	.	.
16B-L 16G\	16gL 16d/	.	.
16B-JJ 16G\	16gJJ 16d/	.	.
8B- 8G\	8g 8d/	.	.
8B-L 8G\	8d/L	Gdy	.
8d 8B- 8G\	8g/	mi	.
8dJ 8B- 8G\	8b-/J	kto	.
=23	=23	=23	=23
8dL 8B- 8G\	4dd\	z bo-	.
16dL 16B- 16G\	.	.	.
16dJJ 16B- 16G\	.	.	.
8dL 8B- 8G\	8dd\L	-ku	.
8e- 8B- 8G\	8cc#X\	wspom-	.
8d 8B- 8G\	8dd\	-ni	.
8c#XJ 8B- 8G\	8g\J	Kaź-	.
!!LO:PB:g=original
=24	=24	=24	=24
8dL 8B- 8G\	[4b-\	-mie-	.
16dL 16B- 16G\	.	.	.
16dJJ 16B- 16G\	.	.	.
8dL 8B- 8G\	8b-\]	-rza,	.
8d 8B- 8G\	8dd^\L	łez	.
8d 8B- 8G\	8cc\	na-	.
8dJ 8B- 8G\	8b-\J	-gle	.
=25	=25	=25	=25
8e-L 8c 8G\	(4b-\	w o-	.
16e-L 16c 16G\	.	.	.
16e-JJ 16c 16G\	.	.	.
8e-L 8c 8G\	8a/L)	-ku	.
8e- 8c 8G\	8cc^/	po-	.
8d 8c 8G\	8b-/	-tok	.
8dJ 8c 8G\	8a/J	u-	.
=26	=26	=26	=26
8dL 8B- 8G\	(16b-/LL	-de-	.
.	16a/JJ	.	.
16dL 16B- 16G\	8g/)	-rza	.
16dJJ 16B- 16G\	.	.	.
8dL 8B- 8G\	8r	.	.
8d 8B- 8G\	(8d/L	.	.
8d 8B- 8G\	8g/	.	.
8dJ 8B- 8G\	8b-/J	.	.
=27	=27	=27	=27
8dL 8B- 8G\	4dd\	.	.
16dL 16B- 16G\	.	.	.
16dJJ 16B- 16G\	.	.	.
8dL 8B- 8G\	8dd\L	.	.
8e- 8B- 8G\	8cc#X\	.	.
8d 8B- 8G\	8.dd\	.	.
8c#XJ 8B- 8G\	.	.	.
.	16g\Jk	.	.
!!LO:LB:g=original
=28	=28	=28	=28
*	*^	*	*
8dL 8B- 8G\	4.ryy	4.b-\)	.	.
!	!	!	!	!LO:HP:a
16dL 16B- 16G\	.	.	.	<
16dJJ 16B- 16G\	.	.	.	.
8dL 8B- 8G\	.	.	.	.
*	*Xtuplet	*	*	*
*	*cue	*	*	*
8d 8G\	24b-/LL	8b-\L	.	.
.	24cc/	.	.	.
.	24b-/JJ	.	.	.
*	*Xcue	*	*	*
*	*tuplet	*	*	*
8c#X 8G\	4ryy	8a 8en\	.	.
8c#J 8G\	.	8b-J 8e\	.	[
=29	=29	=29	=29	=29
!	!	!	!	!LO:HP:a
8dL 8F\	(4.ff 4.b-/	8f\L	.	>
16dL 16F\	.	16b-L 16f\	.	.
16dJJ 16F\	.	16b-JJ 16f\	.	.
8dL 8F\	.	8b-L 8f\	.	.
8d-X 8F\	8een/L)	8b- 8g\	.	.
8c 8F\	8ee-X/	8a 8f\	.	.
8F\J	8cc/J	8aJ 8e-\	.	]
=30	=30	=30	=30	=30
8B-L 8BB-\	4cc#X/	8gL 8en\	.	.
16B-L 16BB-\	.	16gL 16e\	.	.
16B-JJ 16BB-\	.	16gJJ 16e\	.	.
*tremolo	*	*	*	*
8B-L 8BB-\	8dd/	8f 8d\	.	.
8B- 8BB-\	8ddL 8f 8d'/	4.ryy	.	.
8B- 8BB-\	8dd 8f 8d'/	.	.	.
8B-J 8BB-\	8ddJ 8f 8d'/	.	.	.
*Xtremolo	*	*	*	*
*	*v	*v	*	*
=31	=31	=31	=31
8B-L 8G-X 8BB-'\	(4dd (4f^/	.	.
16B-L 16G- 16BB-'\	.	.	.
16B-JJ 16G- 16BB-'\	.	.	.
8B-L 8G- 8BB-'\	8ccL 8e-/))	.	.
8B- 8G- 8BB-'\	8cc 8e-'/	.	.
8B- 8G- 8BB-'\	8cc 8e-'/	.	.
8B-J 8G- 8BB-'\	8ccJ 8e-'/	.	.
!!LO:LB:g=original
=32	=32	=32	=32
*	*^	*	*
8B-L 8F 8BB-'\	(>4cc [4d^/	4.ryy	.	.
16B-L 16F 16BB-'\	.	.	.	.
16B-JJ 16F 16BB-'\	.	.	.	.
8B-L 8F 8BB-'\	8b- 8d/])	.	.	.
8B-J 8F 8BB-'\	8b-/L	8d\L	.	.
8Gn\L	8.cc^/	8en 8d\	.	.
8G\J	.	8eJ 8d\	.	.
.	16b-/Jk	.	.	.
=33	=33	=33	=33	=33
(8A\L	8aL 8f#X/	8d\L	.	.
16F\L	16aL 16f#/	16d\L	.	.
16D\JJ	16aJJ 16f#/	16d\JJ	.	.
8AA\L)	8aL 8f#/	8d\L	.	.
8A'\	8a 8f#/	8d\	.	.
8AA'\	8.cc#X^/	8en\	.	.
8A'\J	.	8eJ 8c#X\	.	.
.	16a/Jk	.	.	.
=34	=34	=34	=34	=34
*^	*	*	*	*
8E-X/L	[4EE-X\	4.ccn/	8gL 8cn\	.	sf >
16E-/L	.	.	16gL 16c\	.	.
16E-/JJ	.	.	16gJJ 16c\	.	.
8E-/	8EE-\]	.	8g 8c\	.	]
[8GL 8C\	8ryy	(8ee-XL 8g 8e-X/	4.ryy	.	.
8G] 8BB-\	4ryy	8dd 8g 8d/)	.	.	.
8E-\J	.	8gJ 8c#X/	.	.	.
*v	*v	*	*	*	*
=35	=35	=35	=35	=35
8D\L	4.b-/	8gL 8d\	.	.
16D\L	.	16gL 16d\	.	.
16D\JJ	.	16gJJ 16d\	.	.
8D\L	.	8g 8d\	.	.
.	8qdd/	.	.	.
8D\J	8ccn/L	8gL 8e-\	.	.
4D 4DD/	8.b-/	8g 8d\	.	.
.	.	8f#XJ 8c\	.	.
.	16a/Jk	.	.	.
!!LO:LB:g=original
=36	=36	=36	=36	=36
8D 8GG/	4.g/	8B-\L	.	.
16B-LL 16G\	.	16d\L	.	.
16B-JJ 16G\	.	16d\JJ	.	.
8B-L 8G\	.	8d\L	.	.
8B- 8G\	(8g/L	8d\	.	.
8G\	8b-/)	8e- 8c#X\	.	.
8G\J	8b-/J	8e-J 8c#\	.	.
=37	=37	=37	=37	=37
8B-L 8G\	4.g/	8d\L	.	.
16B-L 16G\	.	16d\L	.	.
16B-JJ 16G\	.	16d\JJ	.	.
8B-L 8G\	.	8d\L	.	.
8B- 8G\	8g/L	8d\	.	.
8G\	8b-/	8e- 8c#X\	.	.
8G\J	8b-/J	8e-J 8c#\	.	.
=38	=38	=38	=38	=38
!	!	!	!	!LO:HP:a
8B-L 8G\	4.g/	8d\L	.	<
16B-L 16G\	.	16d\L	.	.
16B-JJ 16G\	.	16d\JJ	.	.
8B-L 8G\	.	8d\L	.	.
8E-\	8g/L	8e-\	.	.
8B- 8E-\	8f/	8e-\	.	.
8B-J 8D-X\	8g/J	8e-\J	.	[
=39	=39	=39	=39	=39
!	!	!	!	!LO:DY:a
!	!	!	!	!LO:HP:a
8A-XL 8C\	(4.a-X/	8e-\L	.	sf >
16A-L 16C\	.	16e-\L	.	.
16A-JJ 16C\	.	16e-\JJ	.	.
8A-L 8C\	.	8e-\L	.	.
8B- 8C#X\	8g/L)	8en\	.	.
8An 8D\	8f#X/	8d\	.	.
8cnJ 8D\	8dd/J	8fnJ 8d\	.	]
*	*v	*v	*	*
!!LO:LB:g=original
=40	=40	=40	=40
*>B1	*>B1	*	*
8B- 8G\	8b- 8g 8d/	.	f >
8g>\L	8ee-L 8b-/	.	.
8fn>\	8dd 8b- 8g/	.	.
8e->\	8cc#X 8b- 8g/	.	.
(16d>\L	8dd 8b- 8g/	.	.
16cn>\	.	.	.
16B->\	8g/J	.	]]
16c>\JJ)	.	.	.
=41	=41	=41	=41
!LO:TX:t=P:problem:mixed beam	!	!	!
(<8.d>\L	(2b- 2g/	.	.
32B-/LL	.	.	.
32G/JJJ	.	.	.
8D/)	.	.	.
8r	.	.	.
4D 4DD/	4a 4f#X 4c/	.	.
=42	=42	=42	=42
*	*^	*	*
8G 8D 8GG/	4.g/)	8d 8B-\	.	.
16dLL 16B- 16G\	.	8ryy	.	p
16dJJ 16B- 16G\	.	.	.	.
8dL 8B- 8G\	.	2ryy	.	.
8d 8B- 8G\	8ggL 8g\	.	.	.
8e- 8c#X 8B- 8G\	8bb- 8b-\	.	.	.
8e-J 8c# 8B- 8G\	8bb-J 8b-\	.	.	.
*	*v	*v	*	*
=43	=43	=43	=43
8dL 8B- 8G\	4.gg 4.g\	.	.
16dL 16B- 16G\	.	.	.
16dJJ 16B- 16G\	.	.	.
8dL 8B- 8G\	.	.	.
8d 8B- 8G\	8ggL 8g\	.	.
8e- 8c#X 8B- 8G\	8bb- 8b-\	.	.
8e-J 8c# 8B- 8G\	8bb-J 8b-\	.	.
=44	=44	=44	=44
8d 8B- 8G\	8gg 8g\	.	.
16B-LL 16G\	16gLL 16d/	.	.
16B-JJ 16G\	16gJJ 16d/	.	.
*tremolo	*tremolo	*	*
8B-L 8G\	8gL 8d/	.	.
8B- 8G\	8g 8d/	.	.
8B- 8G\	8g 8d/	.	.
8B-J 8G\	8gJ 8d/	.	.
*Xtremolo	*Xtremolo	*	*
!!LO:LB:g=original
=45:|!	=45:|!	=45:|!	=45:|!
*>B2	*>B2	*	*
8B- 8G\	8b- 8g/	.	.
8g\L	8ee-L 8b-\	.	.
8fn\	8gg 8b- 8g\	.	.
8e-\J	8b- 8g\	.	.
16d\LL	8dd 8b- 8g\	.	.
16c\	.	.	.
16B-\	8g\J	.	.
16c\JJ	.	.	.
=46	=46	=46	=46
8d\L	2b- 2g/	.	.
16B-\L	.	.	.
16G\JJ	.	.	.
8D\	.	.	.
8r	.	.	.
4c 4D\	4a 4f#X/	.	.
=47	=47	=47	=47
*>C	*>C	*	*
*	*^	*	*
8G 8D 8GG/	4.g/	8d 8B-\	.	.
16dLL 16B- 16G\	.	8ryy	.	p
16dJJ 16B- 16G\	.	.	.	.
8dL 8B- 8G\	.	2ryy	.	.
8d 8B- 8G\	8ggL 8g\	.	.	.
8e- 8c#X 8B- 8G\	8bb- 8b-\	.	.	.
8e-J 8c# 8B- 8G\	8bb-J 8b-\	.	.	.
*	*v	*v	*	*
=48	=48	=48	=48
8dL 8B- 8G\	4.gg 4.g\	.	.
16dL 16B- 16G\	.	.	.
16dJJ 16B- 16G\	.	.	.
8dL 8B- 8G\	.	.	.
8d 8B- 8G\	8ggL 8g\	.	.
8e- 8c#X 8B- 8G\	8bb- 8b-\	.	.
8e-J 8c# 8B- 8G\	8bb-J 8b-\	.	.
=49	=49	=49	=49
8d 8B- 8G\	8gg 8g\	.	.
16B-LL 16G\	16ddLL 16d/	.	.
16B-JJ 16G\	16ddJJ 16d/	.	.
8B-L 8G\	8ddL 8d/	.	.
8B- 8G\	8b- 8d/	.	.
8B- 8G\	8g 8d/	.	.
8B-J 8G\	8d/J	.	.
=50	=50	=50	=50
8B- 8G\	8g 8d/	.	.
8r	8r	.	.
8G 8D 8BB- 8GG/	8gg 8dd 8b- 8g\	.	sf
8r	8r	.	.
4r	4r	.	.
==	==	==	==
*-	*-	*-	*-
!!!system-decoration: {(p1)}
!!!ENC: Andrzej Gręziak
!!!END: 2022-08-23
!!!ENC: Kamil Watkowski
!!!END: 2022-09-28
!!!RDF**kern: > = above
!!!RDF**kern: < = below
!!!YEC: Copyright 2022 Narodowy Instytut Fryderyka Chopina (https://polishscores.org)
!!!YEM: License CC-BY-4.0 (https://creativecommons.org/licenses/by/4.0)
